public/icons/google-btn.svg

<svg width="25" height="24" viewBox="0 0 25 24" fill="none" xmlns="http://www.w3.org/2000/svg">
<g clipPath="url(#clip0_1_547)">
<mask id="mask0_1_547" style="mask-type:luminance" maskUnits="userSpaceOnUse" x="1" y="0" width="24" height="24">
<path d="M24.3068 9.81819H13.125V14.4546H19.5614C18.9614 17.4 16.4523 19.0909 13.125 19.0909C9.19773 19.0909 6.03409 15.9273 6.03409 12C6.03409 8.07273 9.19773 4.90909 13.125 4.90909C14.8159 4.90909 16.3432 5.50909 17.5432 6.49091L21.0341 3C18.9068 1.14545 16.1796 0 13.125 0C6.47046 0 1.125 5.34546 1.125 12C1.125 18.6546 6.47046 24 13.125 24C19.125 24 24.5796 19.6364 24.5796 12C24.5796 11.2909 24.4705 10.5273 24.3068 9.81819Z" fill="white"/>
</mask>
<g mask="url(#mask0_1_547)">
<path d="M0.0340576 19.091V4.90918L9.30679 12.0001L0.0340576 19.091Z" fill="#FBBC05"/>
</g>
<mask id="mask1_1_547" style="mask-type:luminance" maskUnits="userSpaceOnUse" x="1" y="0" width="24" height="24">
<path d="M24.3068 9.81819H13.125V14.4546H19.5614C18.9614 17.4 16.4523 19.0909 13.125 19.0909C9.19773 19.0909 6.03409 15.9273 6.03409 12C6.03409 8.07273 9.19773 4.90909 13.125 4.90909C14.8159 4.90909 16.3432 5.50909 17.5432 6.49091L21.0341 3C18.9068 1.14545 16.1796 0 13.125 0C6.47046 0 1.125 5.34546 1.125 12C1.125 18.6546 6.47046 24 13.125 24C19.125 24 24.5796 19.6364 24.5796 12C24.5796 11.2909 24.4705 10.5273 24.3068 9.81819Z" fill="white"/>
</mask>
<g mask="url(#mask1_1_547)">
<path d="M0.0340576 4.90918L9.30679 12.0001L13.125 8.67282L26.2159 6.54555V-1.09082H0.0340576V4.90918Z" fill="#EA4335"/>
</g>
<mask id="mask2_1_547" style="mask-type:luminance" maskUnits="userSpaceOnUse" x="1" y="0" width="24" height="24">
<path d="M24.3068 9.81819H13.125V14.4546H19.5614C18.9614 17.4 16.4523 19.0909 13.125 19.0909C9.19773 19.0909 6.03409 15.9273 6.03409 12C6.03409 8.07273 9.19773 4.90909 13.125 4.90909C14.8159 4.90909 16.3432 5.50909 17.5432 6.49091L21.0341 3C18.9068 1.14545 16.1796 0 13.125 0C6.47046 0 1.125 5.34546 1.125 12C1.125 18.6546 6.47046 24 13.125 24C19.125 24 24.5796 19.6364 24.5796 12C24.5796 11.2909 24.4705 10.5273 24.3068 9.81819Z" fill="white"/>
</mask>
<g mask="url(#mask2_1_547)">
<path d="M0.0340576 19.091L16.3977 6.54555L20.7068 7.091L26.2159 -1.09082V25.091H0.0340576V19.091Z" fill="#34A853"/>
</g>
<mask id="mask3_1_547" style="mask-type:luminance" maskUnits="userSpaceOnUse" x="1" y="0" width="24" height="24">
<path d="M24.3068 9.81819H13.125V14.4546H19.5614C18.9614 17.4 16.4523 19.0909 13.125 19.0909C9.19773 19.0909 6.03409 15.9273 6.03409 12C6.03409 8.07273 9.19773 4.90909 13.125 4.90909C14.8159 4.90909 16.3432 5.50909 17.5432 6.49091L21.0341 3C18.9068 1.14545 16.1796 0 13.125 0C6.47046 0 1.125 5.34546 1.125 12C1.125 18.6546 6.47046 24 13.125 24C19.125 24 24.5796 19.6364 24.5796 12C24.5796 11.2909 24.4705 10.5273 24.3068 9.81819Z" fill="white"/>
</mask>
<g mask="url(#mask3_1_547)">
<path d="M26.2159 25.091L9.30682 12.0001L7.125 10.3637L26.2159 4.90918V25.091Z" fill="#4285F4"/>
</g>
</g>
<defs>
<clipPath id="clip0_1_547">
<rect width="24" height="24" fill="white" transform="translate(0.75)"/>
</clipPath>
</defs>
</svg>

<svg width="25" height="24" fill="none" xmlns="http://www.w3.org/2000/svg"><mask id="a" style="mask-type:luminance" maskUnits="userSpaceOnUse" x="1" y="0" width="24" height="24"><path d="M24.307 9.818H13.125v4.637h6.436c-.6 2.945-3.109 4.636-6.436 4.636A7.077 7.077 0 0 1 6.035 12a7.077 7.077 0 0 1 7.09-7.09c1.69 0 3.218.6 4.418 1.58L21.034 3c-2.127-1.855-4.854-3-7.909-3-6.655 0-12 5.345-12 12s5.345 12 12 12c6 0 11.455-4.364 11.455-12 0-.71-.11-1.473-.273-2.182Z" fill="#fff"/></mask><g mask="url(#a)"><path d="M.034 19.091V4.909L9.307 12 .034 19.091Z" fill="#FBBC05"/></g><mask id="b" style="mask-type:luminance" maskUnits="userSpaceOnUse" x="1" y="0" width="24" height="24"><path d="M24.307 9.818H13.125v4.637h6.436c-.6 2.945-3.109 4.636-6.436 4.636A7.077 7.077 0 0 1 6.035 12a7.077 7.077 0 0 1 7.09-7.09c1.69 0 3.218.6 4.418 1.58L21.034 3c-2.127-1.855-4.854-3-7.909-3-6.655 0-12 5.345-12 12s5.345 12 12 12c6 0 11.455-4.364 11.455-12 0-.71-.11-1.473-.273-2.182Z" fill="#fff"/></mask><g mask="url(#b)"><path d="M.034 4.91 9.307 12l3.818-3.327 13.09-2.127v-7.637H.036v6Z" fill="#EA4335"/></g><mask id="c" style="mask-type:luminance" maskUnits="userSpaceOnUse" x="1" y="0" width="24" height="24"><path d="M24.307 9.818H13.125v4.637h6.436c-.6 2.945-3.109 4.636-6.436 4.636A7.077 7.077 0 0 1 6.035 12a7.077 7.077 0 0 1 7.09-7.09c1.69 0 3.218.6 4.418 1.58L21.034 3c-2.127-1.855-4.854-3-7.909-3-6.655 0-12 5.345-12 12s5.345 12 12 12c6 0 11.455-4.364 11.455-12 0-.71-.11-1.473-.273-2.182Z" fill="#fff"/></mask><g mask="url(#c)"><path d="M.034 19.091 16.398 6.546l4.309.545 5.509-8.182v26.182H.034v-6Z" fill="#34A853"/></g><mask id="d" style="mask-type:luminance" maskUnits="userSpaceOnUse" x="1" y="0" width="24" height="24"><path d="M24.307 9.818H13.125v4.637h6.436c-.6 2.945-3.109 4.636-6.436 4.636A7.077 7.077 0 0 1 6.035 12a7.077 7.077 0 0 1 7.09-7.09c1.69 0 3.218.6 4.418 1.58L21.034 3c-2.127-1.855-4.854-3-7.909-3-6.655 0-12 5.345-12 12s5.345 12 12 12c6 0 11.455-4.364 11.455-12 0-.71-.11-1.473-.273-2.182Z" fill="#fff"/></mask><g mask="url(#d)"><path d="m26.216 25.091-16.91-13.09-2.181-1.637 19.09-5.455v20.182Z" fill="#4285F4"/></g></svg>
